chart-pie.svg

<?xml version="1.0" encoding="utf-8" ?><svg xmlns="http://www.w3.org/2000/svg" xmlns:xlink="http://www.w3.org/1999/xlink" width="800" height="800"><rect fill-opacity="0" width="800" height="800"/><clipPath id="cl_3"><rect y="740" width="800" height="60"/></clipPath><g clip-path="url(#cl_3)"><path fill="#4CAF50" d="M164.60001 770L204.60001 770L204.60001 790L164.60001 790L164.60001 770Z"/><path fill="none" stroke="white" stroke-width="2" stroke-miterlimit="10" d="M164.60001 770L204.60001 770L204.60001 790L164.60001 790L164.60001 770Z"/><text fill="#666" font-size="20" font-family="Helvetica Neue" x="214.60001, 224.24001, 230.89999, 242.01999, 252.01997, 258.31995, 269.05994, " y="787, ">Trusted</text><path fill="#FF9800" d="M310.91998 770L350.91998 770L350.91998 790L310.91998 790L310.91998 770Z"/><path fill="none" stroke="white" stroke-width="2" stroke-miterlimit="10" d="M310.91998 770L350.91998 770L350.91998 790L310.91998 790L310.91998 770Z"/><text fill="#666" font-size="20" font-family="Helvetica Neue" x="360.91998, 373.87997, 380.17996, 391.65997, 401.65994, 412.39993, 423.51993, 434.25992, 445.37991, 456.1199, " y="787, ">Provenance</text><path fill="#F44336" d="M496.85999 770L536.85999 770L536.85999 790L496.85999 790L496.85999 770Z"/><path fill="none" stroke="white" stroke-width="2" stroke-miterlimit="10" d="M496.85999 770L536.85999 770L536.85999 790L496.85999 790L496.85999 770Z"/><text fill="#666" font-size="20" font-family="Helvetica Neue" x="546.85999, 561.29999, 572.41998, 578.71997, 585.37994, 596.49994, 606.49994, 612.79993, 623.53992, " y="787, ">Untrusted</text></g><path fill="#4CAF50" d="M400 1Q406.04523 1.0000001 412.08716 1.1980184Q418.12909 1.3960367 424.16129 1.7918608Q430.19354 2.187685 436.20953 2.78089Q442.22552 3.374095 448.21881 4.1640439Q454.21222 4.9539938 460.17645 5.9398394Q466.14072 6.9256854 472.06943 8.106369Q477.99823 9.2870541 483.88513 10.661308Q489.772 12.035563 495.61066 13.601913Q501.44943 15.168266 507.2337 16.925034Q513.01801 18.681801 518.74158 20.627094Q524.46533 22.572393 530.12213 24.704132Q535.77899 26.835871 541.36292 29.15176Q546.94696 31.467655 552.45209 33.965218Q557.95721 36.462776 563.3775 39.13932Q568.79791 41.815872 574.12769 44.66853Q579.45746 47.521194 584.69086 50.546906Q589.92444 53.572628 595.05597 56.768154Q600.1875 59.96368 605.21161 63.325577Q610.23584 66.687485 615.14709 70.212158Q620.05841 73.736824 624.85156 77.420471Q629.64478 81.104134 634.31482 84.942825Q638.9848 88.781509 643.52649 92.771103Q648.06824 96.760712 652.47681 100.89693Q656.88544 105.03316 661.15613 109.31157Q665.42694 113.59 669.5553 118.00603Q673.68359 122.42204 677.66498 126.97092Q681.64648 131.51981 685.47681 136.19666Q689.30707 140.8735 692.98206 145.67331Q696.65723 150.47314 700.1731 155.39075Q703.68896 160.30838 707.04181 165.33852Q710.39478 170.36868 713.58105 175.50595Q716.7674 180.64323 719.78363 185.88211L400 370L400 370L400 370L400 1Z"/><path fill="none" stroke="white" stroke-width="2" stroke-linejoin="bevel" d="M400 1Q406.04523 1.0000001 412.08716 1.1980184Q418.12909 1.3960367 424.16129 1.7918608Q430.19354 2.187685 436.20953 2.78089Q442.22552 3.374095 448.21881 4.1640439Q454.21222 4.9539938 460.17645 5.9398394Q466.14072 6.9256854 472.06943 8.106369Q477.99823 9.2870541 483.88513 10.661308Q489.772 12.035563 495.61066 13.601913Q501.44943 15.168266 507.2337 16.925034Q513.01801 18.681801 518.74158 20.627094Q524.46533 22.572393 530.12213 24.704132Q535.77899 26.835871 541.36292 29.15176Q546.94696 31.467655 552.45209 33.965218Q557.95721 36.462776 563.3775 39.13932Q568.79791 41.815872 574.12769 44.66853Q579.45746 47.521194 584.69086 50.546906Q589.92444 53.572628 595.05597 56.768154Q600.1875 59.96368 605.21161 63.325577Q610.23584 66.687485 615.14709 70.212158Q620.05841 73.736824 624.85156 77.420471Q629.64478 81.104134 634.31482 84.942825Q638.9848 88.781509 643.52649 92.771103Q648.06824 96.760712 652.47681 100.89693Q656.88544 105.03316 661.15613 109.31157Q665.42694 113.59 669.5553 118.00603Q673.68359 122.42204 677.66498 126.97092Q681.64648 131.51981 685.47681 136.19666Q689.30707 140.8735 692.98206 145.67331Q696.65723 150.47314 700.1731 155.39075Q703.68896 160.30838 707.04181 165.33852Q710.39478 170.36868 713.58105 175.50595Q716.7674 180.64323 719.78363 185.88211L400 370L400 370L400 370L400 1Z"/><path fill="#FF9800" d="M719.78369 185.88208Q728.87561 201.67336 736.36749 218.28352Q743.85944 234.89378 749.67847 252.16135L400 370L400 370L400 370L719.78357 185.88197L719.78369 185.88208Z"/><path fill="none" stroke="white" stroke-width="2" stroke-linejoin="bevel" d="M719.78369 185.88208Q728.87561 201.67336 736.36749 218.28352Q743.85944 234.89378 749.67847 252.16135L400 370L400 370L400 370L719.78357 185.88197L719.78369 185.88208Z"/><path fill="#F44336" d="M749.67847 252.16135Q752.57123 260.74548 755.03937 269.46118Q757.50745 278.17694 759.54492 287.00327Q761.58234 295.82959 763.1842 304.74524Q764.78613 313.66089 765.94861 322.64444Q767.11108 331.62799 767.83142 340.65775Q768.55176 349.6875 768.82812 358.74173Q769.10449 367.79596 768.93622 376.85281Q768.76801 385.90967 768.15558 394.94739Q767.54315 403.98511 766.48804 412.98187Q765.43286 421.97867 763.93762 430.91284Q762.44226 439.84698 760.51038 448.69702Q758.57843 457.54706 756.2146 466.29163Q753.85077 475.03619 751.06079 483.6543Q748.27069 492.27234 745.06116 500.74313Q741.85156 509.21393 738.23022 517.51703Q734.60889 525.82007 730.58447 533.93549Q726.56006 542.0509 722.14233 549.95905Q717.72461 557.86719 712.92413 565.54901Q708.12366 573.23083 702.95197 580.66791Q697.7804 588.10498 692.25006 595.2793Q686.71979 602.45361 680.84412 609.34796Q674.96851 616.24231 668.7616 622.84009Q662.55469 629.43781 656.03156 635.72302Q649.50842 642.00824 642.68475 647.96582Q635.86108 653.92334 628.7533 659.53894Q621.64551 665.15454 614.27075 670.41467Q606.896 675.67468 599.27197 680.56653Q591.64801 685.45837 583.79321 689.97028Q575.93835 694.48218 567.87164 698.60315Q559.80487 702.72424 551.54565 706.44446Q543.28638 710.16467 534.85455 713.47516Q526.42273 716.78564 517.83862 719.67847Q512.65906 721.42383 507.43005 723.01508Q502.20108 724.60632 496.92731 726.04218Q491.65344 727.47778 486.33945 728.75665Q481.02545 730.03552 475.67593 731.15656Q470.32632 732.27747 464.94592 733.23938Q459.56549 734.20142 454.159 735.00372Q448.75244 735.80591 443.32452 736.44763Q437.89661 737.08936 432.45209 737.57013Q427.00748 738.05078 421.55103 738.37Q416.09464 738.68921 410.6312 738.84674Q405.16769 739.00415 399.70197 738.99976Q394.23624 738.9953 388.77307 738.8291Q383.30981 738.66272 377.85391 738.33472Q372.39804 738.00665 366.95432 737.51721Q361.5105 737.02771 356.08365 736.3772Q350.65674 735.72675 345.25156 734.91589Q339.84625 734.10486 334.46741 733.13416Q329.08856 732.16345 323.74084 731.03394Q318.39307 729.9043 313.08112 728.61682Q307.76917 727.32935 302.49774 725.88513Q297.22623 724.4408 291.99985 722.84106Q286.77344 721.24133 281.59677 719.48755Q276.42004 717.73364 271.29755 715.82727Q266.17505 713.9209 261.1113 711.86377Q256.04749 709.8064 251.04684 707.60004Q246.04619 705.39368 241.11311 703.04028Q236.17999 700.68677 231.31877 698.18823Q226.45755 695.68964 221.67249 693.04828Q216.88739 690.40674 212.18263 687.62476Q207.47787 684.84277 202.85759 681.92273Q198.23727 679.00256 193.70551 675.9469Q189.17374 672.89124 184.73447 669.70276Q177.37717 664.41833 170.28804 658.77917Q163.19891 653.14014 156.39502 647.15997Q149.59113 641.17975 143.08885 634.87292Q136.58658 628.5661 130.40161 621.94781Q124.21664 615.32959 118.36386 608.41583Q112.51109 601.50208 107.00461 594.30939Q101.49812 587.1167 96.351196 579.66254Q91.204262 572.20837 86.429291 564.51068Q81.654327 556.81293 77.262817 548.8902Q72.871307 540.96747 68.87384 532.83881Q64.876373 524.71008 61.282578 516.39508Q57.688774 508.08002 54.507309 499.59863Q51.325844 491.11725 48.564369 482.48999Q45.802898 473.86273 43.468071 465.11041Q41.13324 456.35803 39.230682 447.50165Q37.328125 438.64526 35.862419 429.70618Q34.396713 420.76709 33.371399 411.76688Q32.346077 402.76666 31.763615 393.72696Q31.181149 384.68726 31.042942 375.62988Q30.904736 366.57248 31.211121 357.51923Q31.517506 348.46597 32.267746 339.43866Q33.017982 330.41135 34.21027 321.43173Q35.40255 312.45209 37.034008 303.54178Q38.665466 294.63147 40.73217 285.81192Q42.79887 276.99237 45.295837 268.28488Q47.792801 259.57739 50.71402 251.00291Q53.635231 242.42842 56.973656 234.0076Q60.31208 225.58676 64.059677 217.3399Q67.807266 209.09305 71.955002 201.03999Q76.102737 192.98694 80.640633 185.14711Q85.178513 177.30728 90.095612 169.69955Q95.012711 162.09183 100.29718 154.73453Q103.48575 150.29523 106.80441 145.95232Q110.12306 141.60941 113.56891 137.36671Q117.01472 133.12399 120.58471 128.98521Q124.15469 124.84644 127.84571 120.81522Q131.5367 116.78397 135.34546 112.86383Q139.15424 108.94369 143.07747 105.13808Q147.00067 101.33246 151.0349 97.644714Q155.06911 93.95697 159.21078 90.390335Q163.35242 86.823685 167.5979 83.381271Q171.84338 79.938858 176.18898 76.623718Q180.53455 73.308548 184.97639 70.123558Q189.41824 66.93856 193.95251 63.886536Q198.48674 60.834492 203.10939 57.918091Q207.73206 55.001686 212.43907 52.223484Q217.14606 49.445274 221.93327 46.807693Q226.72049 44.17012 231.58377 41.675495Q236.44698 39.180859 241.38196 36.83136Q246.31696 34.481865 251.31938 32.279564Q256.32178 30.077259 261.38724 28.024088Q266.4527 25.970915 271.57675 24.068674Q276.70078 22.166428 281.87891 20.416782Q287.05704 18.667139 292.28473 17.07163Q297.51239 15.476118 302.78506 14.036143Q308.05771 12.596167 313.37073 11.312989Q318.68365 10.02981 324.03232 8.9045544Q329.38098 7.7792988 334.76062 6.8129544Q340.14023 5.8466091 345.54611 5.0400229Q350.95203 4.2334371 356.37946 3.5873179Q361.80682 2.9411979 367.25098 2.4561114Q372.69519 1.9710248 378.15137 1.6473973Q383.60748 1.3237696 389.07086 1.1618848Q394.53421 1 400 1L400 370L400 370L400 370L749.67847 252.16121L749.67847 252.16135Z"/><path fill="none" stroke="white" stroke-width="2" stroke-linejoin="bevel" d="M749.67847 252.16135Q752.57123 260.74548 755.03937 269.46118Q757.50745 278.17694 759.54492 287.00327Q761.58234 295.82959 763.1842 304.74524Q764.78613 313.66089 765.94861 322.64444Q767.11108 331.62799 767.83142 340.65775Q768.55176 349.6875 768.82812 358.74173Q769.10449 367.79596 768.93622 376.85281Q768.76801 385.90967 768.15558 394.94739Q767.54315 403.98511 766.48804 412.98187Q765.43286 421.97867 763.93762 430.91284Q762.44226 439.84698 760.51038 448.69702Q758.57843 457.54706 756.2146 466.29163Q753.85077 475.03619 751.06079 483.6543Q748.27069 492.27234 745.06116 500.74313Q741.85156 509.21393 738.23022 517.51703Q734.60889 525.82007 730.58447 533.93549Q726.56006 542.0509 722.14233 549.95905Q717.72461 557.86719 712.92413 565.54901Q708.12366 573.23083 702.95197 580.66791Q697.7804 588.10498 692.25006 595.2793Q686.71979 602.45361 680.84412 609.34796Q674.96851 616.24231 668.7616 622.84009Q662.55469 629.43781 656.03156 635.72302Q649.50842 642.00824 642.68475 647.96582Q635.86108 653.92334 628.7533 659.53894Q621.64551 665.15454 614.27075 670.41467Q606.896 675.67468 599.27197 680.56653Q591.64801 685.45837 583.79321 689.97028Q575.93835 694.48218 567.87164 698.60315Q559.80487 702.72424 551.54565 706.44446Q543.28638 710.16467 534.85455 713.47516Q526.42273 716.78564 517.83862 719.67847Q512.65906 721.42383 507.43005 723.01508Q502.20108 724.60632 496.92731 726.04218Q491.65344 727.47778 486.33945 728.75665Q481.02545 730.03552 475.67593 731.15656Q470.32632 732.27747 464.94592 733.23938Q459.56549 734.20142 454.159 735.00372Q448.75244 735.80591 443.32452 736.44763Q437.89661 737.08936 432.45209 737.57013Q427.00748 738.05078 421.55103 738.37Q416.09464 738.68921 410.6312 738.84674Q405.16769 739.00415 399.70197 738.99976Q394.23624 738.9953 388.77307 738.8291Q383.30981 738.66272 377.85391 738.33472Q372.39804 738.00665 366.95432 737.51721Q361.5105 737.02771 356.08365 736.3772Q350.65674 735.72675 345.25156 734.91589Q339.84625 734.10486 334.46741 733.13416Q329.08856 732.16345 323.74084 731.03394Q318.39307 729.9043 313.08112 728.61682Q307.76917 727.32935 302.49774 725.88513Q297.22623 724.4408 291.99985 722.84106Q286.77344 721.24133 281.59677 719.48755Q276.42004 717.73364 271.29755 715.82727Q266.17505 713.9209 261.1113 711.86377Q256.04749 709.8064 251.04684 707.60004Q246.04619 705.39368 241.11311 703.04028Q236.17999 700.68677 231.31877 698.18823Q226.45755 695.68964 221.67249 693.04828Q216.88739 690.40674 212.18263 687.62476Q207.47787 684.84277 202.85759 681.92273Q198.23727 679.00256 193.70551 675.9469Q189.17374 672.89124 184.73447 669.70276Q177.37717 664.41833 170.28804 658.77917Q163.19891 653.14014 156.39502 647.15997Q149.59113 641.17975 143.08885 634.87292Q136.58658 628.5661 130.40161 621.94781Q124.21664 615.32959 118.36386 608.41583Q112.51109 601.50208 107.00461 594.30939Q101.49812 587.1167 96.351196 579.66254Q91.204262 572.20837 86.429291 564.51068Q81.654327 556.81293 77.262817 548.8902Q72.871307 540.96747 68.87384 532.83881Q64.876373 524.71008 61.282578 516.39508Q57.688774 508.08002 54.507309 499.59863Q51.325844 491.11725 48.564369 482.48999Q45.802898 473.86273 43.468071 465.11041Q41.13324 456.35803 39.230682 447.50165Q37.328125 438.64526 35.862419 429.70618Q34.396713 420.76709 33.371399 411.76688Q32.346077 402.76666 31.763615 393.72696Q31.181149 384.68726 31.042942 375.62988Q30.904736 366.57248 31.211121 357.51923Q31.517506 348.46597 32.267746 339.43866Q33.017982 330.41135 34.21027 321.43173Q35.40255 312.45209 37.034008 303.54178Q38.665466 294.63147 40.73217 285.81192Q42.79887 276.99237 45.295837 268.28488Q47.792801 259.57739 50.71402 251.00291Q53.635231 242.42842 56.973656 234.0076Q60.31208 225.58676 64.059677 217.3399Q67.807266 209.09305 71.955002 201.03999Q76.102737 192.98694 80.640633 185.14711Q85.178513 177.30728 90.095612 169.69955Q95.012711 162.09183 100.29718 154.73453Q103.48575 150.29523 106.80441 145.95232Q110.12306 141.60941 113.56891 137.36671Q117.01472 133.12399 120.58471 128.98521Q124.15469 124.84644 127.84571 120.81522Q131.5367 116.78397 135.34546 112.86383Q139.15424 108.94369 143.07747 105.13808Q147.00067 101.33246 151.0349 97.644714Q155.06911 93.95697 159.21078 90.390335Q163.35242 86.823685 167.5979 83.381271Q171.84338 79.938858 176.18898 76.623718Q180.53455 73.308548 184.97639 70.123558Q189.41824 66.93856 193.95251 63.886536Q198.48674 60.834492 203.10939 57.918091Q207.73206 55.001686 212.43907 52.223484Q217.14606 49.445274 221.93327 46.807693Q226.72049 44.17012 231.58377 41.675495Q236.44698 39.180859 241.38196 36.83136Q246.31696 34.481865 251.31938 32.279564Q256.32178 30.077259 261.38724 28.024088Q266.4527 25.970915 271.57675 24.068674Q276.70078 22.166428 281.87891 20.416782Q287.05704 18.667139 292.28473 17.07163Q297.51239 15.476118 302.78506 14.036143Q308.05771 12.596167 313.37073 11.312989Q318.68365 10.02981 324.03232 8.9045544Q329.38098 7.7792988 334.76062 6.8129544Q340.14023 5.8466091 345.54611 5.0400229Q350.95203 4.2334371 356.37946 3.5873179Q361.80682 2.9411979 367.25098 2.4561114Q372.69519 1.9710248 378.15137 1.6473973Q383.60748 1.3237696 389.07086 1.1618848Q394.53421 1 400 1L400 370L400 370L400 370L749.67847 252.16121L749.67847 252.16135Z"/></svg>

<svg xmlns="http://www.w3.org/2000/svg" width="800" height="800"><path fill="none" d="M0 0h800v800H0z"/><clipPath id="a"><path d="M0 740h800v60H0z"/></clipPath><g clip-path="url(#a)"><path fill="#4caf50" d="M164.6 770h40v20h-40z"/><path fill="none" stroke="#fff" stroke-miterlimit="10" stroke-width="2" d="M164.6 770h40v20h-40z"/><text x="214.60001, 224.24001, 230.89999, 242.01999, 252.01997, 258.31995, 269.05994," y="787," fill="#666" font-family="Helvetica Neue" font-size="20">Trusted</text><path fill="#ff9800" d="M310.92 770h40v20h-40z"/><path fill="none" stroke="#fff" stroke-miterlimit="10" stroke-width="2" d="M310.92 770h40v20h-40z"/><text x="360.91998, 373.87997, 380.17996, 391.65997, 401.65994, 412.39993, 423.51993, 434.25992, 445.37991, 456.1199," y="787," fill="#666" font-family="Helvetica Neue" font-size="20">Provenance</text><path fill="#f44336" d="M496.86 770h40v20h-40z"/><path fill="none" stroke="#fff" stroke-miterlimit="10" stroke-width="2" d="M496.86 770h40v20h-40z"/><text x="546.85999, 561.29999, 572.41998, 578.71997, 585.37994, 596.49994, 606.49994, 612.79993, 623.53992," y="787," fill="#666" font-family="Helvetica Neue" font-size="20">Untrusted</text></g><path fill="#4caf50" d="M400 1q6.045 0 12.087.198t12.074.594q6.033.396 12.049.989t12.009 1.383q5.993.79 11.957 1.776t11.893 2.166q5.93 1.181 11.816 2.555t11.726 2.94q5.838 1.567 11.623 3.324t11.508 3.702 11.38 4.077 11.24 4.448q5.585 2.316 11.09 4.813 5.505 2.498 10.926 5.174 5.42 2.677 10.75 5.53 5.33 2.852 10.563 5.878t10.365 6.221q5.131 3.196 10.156 6.558 5.024 3.361 9.935 6.886t9.705 7.208q4.793 3.684 9.463 7.523t9.211 7.828 8.95 8.126q4.41 4.136 8.68 8.415t8.4 8.694q4.128 4.416 8.109 8.965t7.812 9.226 7.505 9.476 7.191 9.718 6.869 9.948 6.539 10.167 6.203 10.376L400 370z"/><path fill="none" stroke="#fff" stroke-linejoin="bevel" stroke-width="2" d="M400 1q6.045 0 12.087.198t12.074.594q6.033.396 12.049.989t12.009 1.383q5.993.79 11.957 1.776t11.893 2.166q5.93 1.181 11.816 2.555t11.726 2.94q5.838 1.567 11.623 3.324t11.508 3.702 11.38 4.077 11.24 4.448q5.585 2.316 11.09 4.813 5.505 2.498 10.926 5.174 5.42 2.677 10.75 5.53 5.33 2.852 10.563 5.878t10.365 6.221q5.131 3.196 10.156 6.558 5.024 3.361 9.935 6.886t9.705 7.208q4.793 3.684 9.463 7.523t9.211 7.828 8.95 8.126q4.41 4.136 8.68 8.415t8.4 8.694q4.128 4.416 8.109 8.965t7.812 9.226 7.505 9.476 7.191 9.718 6.869 9.948 6.539 10.167 6.203 10.376L400 370z"/><path fill="#ff9800" d="M719.784 185.882q9.092 15.791 16.583 32.402 7.492 16.61 13.311 33.877L400 370z"/><path fill="none" stroke="#fff" stroke-linejoin="bevel" stroke-width="2" d="M719.784 185.882q9.092 15.791 16.583 32.402 7.492 16.61 13.311 33.877L400 370l319.784-184.118Z"/><path fill="#f44336" d="M749.678 252.161q2.893 8.584 5.361 17.3t4.506 17.542 3.64 17.742 2.764 17.9 1.882 18.013.997 18.084.108 18.11q-.168 9.058-.78 18.095-.613 9.038-1.668 18.035t-2.55 17.93-3.428 17.785-4.295 17.595-5.154 17.362-6 17.09q-3.21 8.47-6.83 16.773-3.622 8.303-7.647 16.418-4.024 8.116-8.442 16.024-4.417 7.908-9.218 15.59-4.8 7.682-9.972 15.119t-10.702 14.611-11.406 14.069q-5.875 6.894-12.082 13.492t-12.73 12.883q-6.524 6.285-13.347 12.243-6.824 5.957-13.932 11.573-7.107 5.616-14.482 10.876t-14.999 10.152q-7.624 4.891-15.479 9.403t-15.921 8.633-16.326 7.841q-8.26 3.72-16.691 7.031-8.432 3.31-17.016 6.203-5.18 1.746-10.409 3.337t-10.503 3.027-10.588 2.715q-5.314 1.279-10.663 2.4t-10.73 2.082-10.787 1.765-10.834 1.444-10.873 1.122q-5.445.48-10.901.8t-10.92.477-10.929.153q-5.466-.005-10.929-.17-5.463-.167-10.92-.495-5.455-.328-10.899-.818t-10.87-1.14-10.832-1.461-10.785-1.782-10.726-2.1-10.66-2.417-10.583-2.732T292 722.841q-5.227-1.6-10.403-3.353t-10.3-3.66q-5.122-1.907-10.186-3.964t-10.064-4.264q-5-2.206-9.934-4.56t-9.794-4.852-9.647-5.14-9.49-5.423-9.324-5.702-9.152-5.976-8.972-6.244q-7.357-5.285-14.446-10.924-7.09-5.639-13.893-11.619t-13.306-12.287q-6.502-6.307-12.687-12.925t-12.038-13.532-11.36-14.107-10.653-14.646-9.922-15.152-9.166-15.62q-4.392-7.924-8.39-16.052-3.997-8.129-7.59-16.444T54.507 499.6t-5.943-17.109-5.096-17.38-4.237-17.608-3.369-17.796-2.49-17.94-1.608-18.039-.721-18.097.168-18.11 1.057-18.081 1.942-18.007 2.824-17.89 3.698-17.73 4.564-17.527 5.418-17.282 6.26-16.995 7.086-16.668q3.747-8.247 7.895-16.3t8.686-15.893 9.455-15.447 10.201-14.965q3.189-4.44 6.507-8.783 3.32-4.343 6.765-8.585 3.446-4.243 7.016-8.382t7.26-8.17 7.5-7.951q3.81-3.92 7.732-7.726 3.924-3.806 7.958-7.493t8.176-7.255q4.141-3.566 8.387-7.009 4.245-3.442 8.591-6.757t8.787-6.5 8.977-6.237 9.156-5.969 9.33-5.695 9.494-5.415 9.65-5.133 9.799-4.844 9.937-4.551 10.068-4.256q5.066-2.053 10.19-3.955t10.302-3.652 10.406-3.345 10.5-3.036 10.586-2.723 10.661-2.408 10.729-2.092 10.785-1.773 10.833-1.453 10.872-1.13q5.444-.486 10.9-.81 5.456-.323 10.92-.485T400 1v369z"/><path fill="none" stroke="#fff" stroke-linejoin="bevel" stroke-width="2" d="M749.678 252.161q2.893 8.584 5.361 17.3t4.506 17.542 3.64 17.742 2.764 17.9 1.882 18.013.997 18.084.108 18.11q-.168 9.058-.78 18.095-.613 9.038-1.668 18.035t-2.55 17.93-3.428 17.785-4.295 17.595-5.154 17.362-6 17.09q-3.21 8.47-6.83 16.773-3.622 8.303-7.647 16.418-4.024 8.116-8.442 16.024-4.417 7.908-9.218 15.59-4.8 7.682-9.972 15.119t-10.702 14.611-11.406 14.069q-5.875 6.894-12.082 13.492t-12.73 12.883q-6.524 6.285-13.347 12.243-6.824 5.957-13.932 11.573-7.107 5.616-14.482 10.876t-14.999 10.152q-7.624 4.891-15.479 9.403t-15.921 8.633-16.326 7.841q-8.26 3.72-16.691 7.031-8.432 3.31-17.016 6.203-5.18 1.746-10.409 3.337t-10.503 3.027-10.588 2.715q-5.314 1.279-10.663 2.4t-10.73 2.082-10.787 1.765-10.834 1.444-10.873 1.122q-5.445.48-10.901.8t-10.92.477-10.929.153q-5.466-.005-10.929-.17-5.463-.167-10.92-.495-5.455-.328-10.899-.818t-10.87-1.14-10.832-1.461-10.785-1.782-10.726-2.1-10.66-2.417-10.583-2.732T292 722.841q-5.227-1.6-10.403-3.353t-10.3-3.66q-5.122-1.907-10.186-3.964t-10.064-4.264q-5-2.206-9.934-4.56t-9.794-4.852-9.647-5.14-9.49-5.423-9.324-5.702-9.152-5.976-8.972-6.244q-7.357-5.285-14.446-10.924-7.09-5.639-13.893-11.619t-13.306-12.287q-6.502-6.307-12.687-12.925t-12.038-13.532-11.36-14.107-10.653-14.646-9.922-15.152-9.166-15.62q-4.392-7.924-8.39-16.052-3.997-8.129-7.59-16.444T54.507 499.6t-5.943-17.109-5.096-17.38-4.237-17.608-3.369-17.796-2.49-17.94-1.608-18.039-.721-18.097.168-18.11 1.057-18.081 1.942-18.007 2.824-17.89 3.698-17.73 4.564-17.527 5.418-17.282 6.26-16.995 7.086-16.668q3.747-8.247 7.895-16.3t8.686-15.893 9.455-15.447 10.201-14.965q3.189-4.44 6.507-8.783 3.32-4.343 6.765-8.585 3.446-4.243 7.016-8.382t7.26-8.17 7.5-7.951q3.81-3.92 7.732-7.726 3.924-3.806 7.958-7.493t8.176-7.255q4.141-3.566 8.387-7.009 4.245-3.442 8.591-6.757t8.787-6.5 8.977-6.237 9.156-5.969 9.33-5.695 9.494-5.415 9.65-5.133 9.799-4.844 9.937-4.551 10.068-4.256q5.066-2.053 10.19-3.955t10.302-3.652 10.406-3.345 10.5-3.036 10.586-2.723 10.661-2.408 10.729-2.092 10.785-1.773 10.833-1.453 10.872-1.13q5.444-.486 10.9-.81 5.456-.323 10.92-.485T400 1v369l349.678-117.839Z"/></svg>
